X: 76
T:72nd Highlander's Farewell to Edinburgh
M:2/4
L:1/8
C:J McDonald
R:Reel
K:D
f|"D"Ad d(e3/4f/4)|"G"g3/4f/4 e/4d3/4 "D"f&gt;f|"G"gB B{c}(c3/4d/4)|"A7"e3/
4f/4e3/4d/4 d3/4c/4B3/4A/4|!
"D"Ad d(e3/4f/4)|"G"g3/4f/4 e/4d3/4 "D"f&gt;f|"G"gB f3/4e/4 d/4c3/4|"D"d2 {
d}d:||!
f3/4-g/4|"D"a{A}A A=c|"G"B-G ({AB}"D"A2)|"D"Ad A3/4B/4 c/4d3/4|"A7"{g}fe
 ef3/4-g/4|!
"D"a{A}A A=c|"G"B-G ({AB}"D"A2)|"D"Ad f3/4e/4 d/4c3/4|"D"d2 {d}d:||

